X:1
T:Title
%%score { ( 1 3 ) | ( 2 4 ) }
L:1/8
M:4/4
K:F
V:1 treble nm="Grand Piano"
V:3 treble 
V:2 bass 
V:4 bass 
V:1
 z4 z2[Q:1/4=100] (3ccc | [EGc]2 (3ccc [FAc]2 (3ccc | [EGBc]2 (3ccc [FAc]2 (3ccc | %3
 [EBc]2 [EB^c]2 [EBd]2 [EB_e]2 |[M:7/8] [EBce]- [EBce]3 [EGBc]3 |[M:1/4] C2 | %6
[M:4/4] z2 (3fff f2 D2 | E2 (3eee e2 C2 | D2 [G,CE]2 [F,CF]2 [DFB]2 | [FA]4 [EG]2 [EG]2 | %10
 [FA]2 (3fff f2 [_A=B]2 | [Ac]2 (3eee e2 d2 | e2 c2 [D^Fc]2 [D=F=B]2 | [Cc]2 (3ccc c2 C2 | %14
 z2 (3fff f2 D2 | E2 (3eee e2 C2 | D2 [G,CE]2 [F,CF]2 [DFB]2 | [CFA]4 [CEG]2 [B,C]2 | %18
 [A,CF]2 [CEG]2 A2 B2 |[M:9/8] c2 f- f f2- fed |[M:4/4] [FAc]2 [D^Fd]2 [DGB]2 [B,EG]2 | %21
[M:1/4] [A,CF]2 |[M:3/4] C2 F2 A2 |[M:4/4] z2 f2 z2 f2 | z2 e2 z2 [cf]2 | %25
 [B,EA][B,EG][A,E^F][B,EG] [CEA]2 [B,EG]2 | c6 z2 | d2 f2 c2 A2 | [GB]2 [Ec]2 A2 F2 | D4 A4 | %30
 [EA]2 [EG]2 E2 C2 | z2 f2 z2 f2 | z2 e2 z2 [cf]2 | [B,EA][B,EG][A,E^F][B,EG] [CEA]2 [B,EG]2 | %34
 c6 z2 | F2 [EG]2 A2 B2 |[M:9/8] c2 f- f f2- fed |[M:4/4] [FAc]2 [D^Fd]2 [DGB]2 [B,EG]2 | %38
[M:3/4] [A,CF]6 |] %39
V:2
 z8 | [B,,B,]4 [A,,A,]4 | [G,,G,]4 [F,,F,]4 | [C,,C,]2 [C,,C,]2 [C,,C,]2 [C,,C,]2 | %4
[M:7/8] [C,,C,]- [C,,C,]3 [C,,C,]3 |[M:1/4] C,2 | %6
[M:4/4] z2[K:treble] (3[Ac][Ac][Ac] [Ac]2[K:bass] D,2 | %7
 z2[K:treble] (3[EB][EB][EB] [EB]2[K:bass] [C,E,B,]2 | [B,,F,B,]2 B,,2 A,,2 B,,2 | %9
 [C,C]4 [C,C]2 [C,C]2 | z2[K:treble] (3[FA][FA][FA] [FA]2[K:bass] [E,E]2 | %11
 z2[K:treble] (3[Ac][Ac][Ac] [Ac]2 [_A,C^F]2 | [G,CG]2[K:bass] [A,CE]2 D,2 G,2 | z2 (3CCC C2 C,2 | %14
 z2[K:treble] (3[Ac][Ac][Ac] [Ac]2[K:bass] D,2 | %15
 z2[K:treble] (3[EB][EB][EB] [EB]2[K:bass] [C,E,B,]2 | [B,,F,B,]2 B,,2 A,,2 B,,2 | C,4 C,2 C,2 | %18
 F,2 C,2[K:treble] [F,CF]2 [G,CE]2 |[M:9/8] z3 z3 z .=E2 |[M:4/4] C2[K:bass] D,2 G,2 C,2 | %21
[M:1/4] F,2 |[M:3/4] C,2 F,2 A,2 |[M:4/4][K:treble] z2 [FA]2 z2 [Gd]2 | z2 [Ec]2 z2 F2 | %25
 C,C,C,C, C,2 C,2 | [F,A,F]2 [C,B,]2 [F,A,]2[K:treble] [F,A,F]2 | [B,F]2 [B,DF]2 [A,CF]2 [F,CF]2 | %28
 [E,C]2 [C,C]2 [F,CF]2 [F,A,C]2 | [G,=B,]4 [G,B,F]4 | [C,B,]2 [C,B,]2 [C,B,C]2 [B,,B,]2 | %31
 z2 [FA]2 z2 [Gd]2 | z2 [Ec]2 z2 F2 | C,C,C,C, C,2 C,2 | [F,A,F]2 [C,B,]2 [F,A,]2 [C,B,]2 | %35
 [F,A,C]2 [C,C]2[K:treble] [F,CF]2 [G,CE]2 |[M:9/8] z3 z3 z .=E2 |[M:4/4][K:bass] C2 D,2 G,2 C,2 | %38
[M:3/4] F,6 |] %39
V:3
 x8 | x8 | x8 | x8 |[M:7/8] x7 |[M:1/4] x2 |[M:4/4] F6 z2 | x8 | x8 | x8 | x8 | x8 | x8 | E6 z2 | %14
 F6 z2 | x8 | x8 | x8 | x8 |[M:9/8] x9 |[M:4/4] x8 |[M:1/4] x2 |[M:3/4] x6 |[M:4/4] c4 =B4 | %24
 B4 A4 | x8 | z2 E2 F2 c2 | x8 | x8 | x8 | x8 | c4 =B4 | B4 A4 | x8 | z2 E2 F2 C2 | x8 | %36
[M:9/8] x9 |[M:4/4] x8 |[M:3/4] x6 |] %39
V:4
 x8 | x8 | x8 | x8 |[M:7/8] x7 |[M:1/4] x2 |[M:4/4] F,6[K:treble][K:bass] z2 | %7
 E,6[K:treble][K:bass] z2 | x8 | x8 | [F,C]6[K:treble][K:bass] z2 | [A,E]6[K:treble] z2 | %12
 x2[K:bass] x6 | C,6 z2 | F,6[K:treble][K:bass] z2 | E,6[K:treble][K:bass] z2 | x8 | x8 | %18
 x4[K:treble] x4 |[M:9/8] [A,CF]2 [F,_EF]- [F,EF] [B,DF]2- [B,DF][=B,_A]-[B,FA] | %20
[M:4/4] x2[K:bass] x6 |[M:1/4] x2 |[M:3/4] x6 |[M:4/4][K:treble] C4 =B,4 | B,4 A,4 | x8 | %26
 x6[K:treble] x2 | x8 | x8 | x8 | x8 | C4 [A,=B,]4 | B,4 A,4 | x8 | x8 | x4[K:treble] x4 | %36
[M:9/8] [A,CF]2 [F,_EF]- [F,EF] [B,DF]2- [B,DF][=B,_A]-[B,FA] |[M:4/4][K:bass] x8 |[M:3/4] x6 |] %39

